!!!!SEGMENT: pl-sa--549-a-ix-29--027_anonim--drabant.krn
!!!cenid: 18xx:481
!!!COM: Anonim
!!!COM-rismid: pe30004985
!!!CDT:
!!!CNT:
!!!OTL: Drabant
!!!PDT:
!!!AGN: Secular
!!!SMS-siglum: PL-SA
!!!SMS-shelfmark: 549/A IX 29
!!!SMS-shelfwork: 027 W
!!!SMS-variant:
!!!SMS-altvar:
!!!NIFC-rismid: 1001068893
!!!system-decoration: {(s1,s2)}
**kern	**kern
*part1	*part1
*staff2	*staff1
*Iempty	*Ipiano
*	*I"Piano
*	*I'P-no
*clefF4	*clefG2
*k[]	*k[]
*C:	*C:
*M2/4	*M2/4
*>[A,B,B]	*>[A,B,B]
=1	=1
*>A	*A
!	!LO:TX:a:Bi:t=Drabant:rj
!LO:TX:a:t=P:problem:mixed beam	!
8C/L	4cc 4e/
8c\	.
8.G\	8.ccL 8.e/
16E\Jk	16ccJk 16e/
=2	=2
4C/	4cc 4e/
4r	8ddL 8b\
.	8eeJ 8cc\
=3	=3
!LO:TX:a:t=P:problem:mixed beam	!
8GG/L	4ff 4dd\
8G\	.
8.D\	8.ffL 8.dd\
16BB\Jk	16ffJk 16dd\
=4	=4
4GG/	4ff 4dd\
4r	4r
=5	=5
4C/	4.ee 4.cc\
4c\	.
.	8gg 8ee\
=6	=6
4F\	8aaL 8ff\
.	8gg 8ee\
4r	8ff 8dd\
.	8eeJ 8cc\
=7	=7
!LO:TX:a:t=P:problem:mixed beam	!
8GG/L	4dd 4b\
8G\	.
8.D\	8.gg\L
16BB\Jk	16gg\Jk
=8	=8
4GG/	8gg\L
.	16aa\L
.	16gg\JJ
4r	16ff\LL
.	16ee\
.	16ff 16dd\
.	16dd\JJ
=9	=9
!LO:TX:a:t=P:problem:mixed beam	!
8C/L	4cc 4e/
8c\	.
8.G\	8.ccL 8.e/
16E\Jk	16ccJk 16e/
=10	=10
4C/	4cc 4e/
4r	8ddL 8b\
.	8eeJ 8cc\
=11	=11
!LO:TX:a:t=P:problem:mixed beam	!
8GG/L	4ff 4dd\
8G\	.
8.D\	8.ffL 8.dd\
16BB\Jk	16ffJk 16dd\
=12	=12
4GG/	4ff 4dd\
4r	4r
!!LO:LB:g=original
=13	=13
4C/	8ee\L
.	8gg\J
4F\	16ff\LL
.	16ee\
.	16ff\
.	16dd\JJ
=14	=14
4G\	4cc 4e/
4GG/	4b 4d/
=15	=15
!LO:TX:a:t=P:problem:mixed beam	!
8C/L	4cc 4e/
8c\	.
8.G\	8.ccL 8.e/
16E\Jk	16ccJk 16e/
=16	=16
4C/	4cc 4e/
4r	4r
=17!|:	=17!|:
*>B	*B
*M3/8	*M3/8
8cL 8C\	8gg\L
8e 8c 8G\	16ff\L
.	16ee\
8eJ 8c 8G\	16ff\
.	16dd\JJ
=18	=18
8cL 8C\	16cc\LL
.	16ee\JJ
8d 8B 8G\	8dd\L
8dJ 8B 8G\	8g\J
=19	=19
*rep	*
8cL 8C\	16cc\LL
.	16ee\
8e 8c 8G\	16dd\
.	16ee\
8eJ 8c 8G\	16ff\
.	16dd\JJ
*Xrep	*
=20	=20
*rep	*
8cL 8C\	16cc\LL
.	16ee\JJ
8d 8B 8G\	8dd/L
8dJ 8B 8G\	8g/J
*Xrep	*
=21	=21
*rep	*
8cL 8C\	16cc\LL
.	16ee\
8e 8c 8G\	16dd\
.	16ee\
8eJ 8c 8G\	16ff\
.	16dd\JJ
*Xrep	*
=22	=22
*rep	*
!	!LO:TUP:a:problem:klamra łukowa
8cL 8C\	24ee\LL
.	24ff\
.	24ee\JJ
8d 8B 8G\	8dd\L
8dJ 8B 8G\	8gg\J
*Xrep	*
=23	=23
*rep	*
8cL 8C\	16cc\LL
.	16ee\
8e 8c 8G\	16dd\
.	16ee\
8eJ 8c 8G\	16ff\
.	16dd\JJ
*Xrep	*
=24	=24
*rep	*
8cL 8C\	16cc\LL
.	16ee\JJ
8d 8B 8G\	8dd/L
8dJ 8B 8G\	8g/J
*Xrep	*
==:|!;	==:|!;
*-	*-
!!title: @{OTL};
!!!RDF**kern: > = above
!!!RDF**kern: < = below
!!!RDF**kern: | = vertical stroke
!!!RDF**kern: N = linked
!!!RDF**kern: i = editorial accidental
!!!RDF**kern: l = terminal long
!!!AIN: 1 empty
!!!ENC: Marcin Jachim
!!!END: 2020-06-17
!!!EED: Wojciech Jakubiak-Danek
!!!EST: 2022-01-04
!!!URL-scan: http://bc.bdsandomierz.pl/dlibra/publication/1441/edition/1409/content
!!!ONB-nifc: Str. 20, s. 5-6
